src/images/header-icon-vk.svg

<svg width="22" height="13" viewBox="0 0 22 13" fill="none" xmlns="http://www.w3.org/2000/svg">
<path d="M20.9598 11.3153C20.9598 11.2323 20.8768 11.2323 20.8768 11.1493C20.5447 10.4851 19.7975 9.65488 18.8012 8.74162C18.3031 8.32651 18.054 7.99441 17.888 7.82837C17.6389 7.49627 17.6389 7.24721 17.7219 6.91512C17.805 6.66605 18.137 6.25093 18.7182 5.50372C19.0503 5.08861 19.2163 4.83955 19.4654 4.59048C20.7107 2.93002 21.2919 1.85071 21.1259 1.35258L21.0429 1.26956C20.9598 1.18654 20.8768 1.10352 20.7107 1.10352C20.5447 1.02049 20.2956 1.02049 20.0466 1.10352H16.8917C16.8087 1.10352 16.8087 1.10352 16.6426 1.10352C16.5596 1.10352 16.4766 1.10352 16.4766 1.10352H16.3936H16.3105L16.2275 1.18653C16.1445 1.26956 16.1445 1.26955 16.1445 1.35258C15.8124 2.26583 15.3973 3.01303 14.9822 3.84326C14.7331 4.25838 14.484 4.6735 14.235 5.00559C13.9859 5.33768 13.8198 5.58675 13.6538 5.75279C13.4877 5.91884 13.3217 6.00186 13.2387 6.16791C13.1557 6.25093 12.9896 6.33396 12.9896 6.25094C12.9066 6.25094 12.8236 6.25093 12.8236 6.16791C12.7405 6.08489 12.6575 6.00186 12.5745 5.91884C12.4915 5.83581 12.4915 5.66977 12.4084 5.50372C12.4084 5.33768 12.4084 5.17163 12.4084 5.08861C12.4084 5.00558 12.4084 4.75652 12.4084 4.59048C12.4084 4.34141 12.4084 4.17536 12.4084 4.09233C12.4084 3.84327 12.4084 3.51118 12.4084 3.17909C12.4084 2.847 12.4084 2.59792 12.4084 2.43188C12.4084 2.26583 12.4084 2.01676 12.4084 1.85072C12.4084 1.60165 12.4084 1.4356 12.4084 1.35258C12.4084 1.26955 12.3254 1.10351 12.3254 1.02049C12.2424 0.937466 12.1594 0.854441 12.0764 0.771418C11.9933 0.688395 11.8273 0.688397 11.7443 0.605374C11.3292 0.522351 10.831 0.439331 10.2499 0.439331C8.92151 0.439331 8.00825 0.522357 7.67616 0.688402C7.51011 0.771425 7.34407 0.854443 7.26104 1.02049C7.095 1.18653 7.09499 1.26956 7.17801 1.26956C7.59313 1.35258 7.92523 1.51862 8.09127 1.76769L8.1743 1.93375C8.25732 2.01677 8.25731 2.18281 8.34033 2.43188C8.42335 2.68095 8.42336 2.93001 8.42336 3.26211C8.42336 3.76024 8.42336 4.25839 8.42336 4.59048C8.42336 5.00559 8.34033 5.25465 8.34033 5.50372C8.34033 5.75279 8.25732 5.91884 8.1743 6.00186C8.09128 6.16791 8.09127 6.25094 8.00824 6.25094C8.00824 6.25094 8.00824 6.33395 7.92522 6.33395C7.84219 6.33395 7.75918 6.41698 7.59313 6.41698C7.51011 6.41698 7.34407 6.33396 7.26104 6.25094C7.095 6.16791 6.92895 6.00187 6.84593 5.83582C6.67988 5.66978 6.51383 5.4207 6.34779 5.08861C6.18174 4.75652 5.93266 4.42443 5.76661 3.92629L5.60058 3.5942C5.51756 3.42816 5.35152 3.09606 5.18547 2.68095C5.01942 2.26583 4.85337 1.93375 4.68733 1.51863C4.6043 1.35259 4.52129 1.26956 4.43827 1.18653H4.35524C4.35524 1.18653 4.27221 1.10352 4.18918 1.10352C4.10616 1.10352 4.02315 1.02049 3.94013 1.02049H0.951295C0.619204 1.02049 0.45316 1.10351 0.370137 1.18653L0.287109 1.26956C0.287109 1.26956 0.287109 1.35258 0.287109 1.4356C0.287109 1.51863 0.287114 1.60164 0.370137 1.76769C0.785252 2.76397 1.28339 3.76025 1.78152 4.75652C2.27966 5.66977 2.7778 6.5 3.1099 7.08117C3.52501 7.66233 3.8571 8.24349 4.27221 8.74162C4.68733 9.23976 4.93639 9.57185 5.01941 9.7379C5.18546 9.90394 5.26848 9.98696 5.3515 10.07L5.60058 10.3191C5.76663 10.4851 6.01569 10.7342 6.34779 10.9832C6.67988 11.2323 7.09499 11.4814 7.5101 11.7304C7.92522 11.9795 8.42336 12.1456 8.9215 12.3116C9.50266 12.4777 10.0008 12.5607 10.4989 12.4777H11.7443C11.9933 12.4777 12.1594 12.3946 12.3254 12.2286L12.4084 12.1456C12.4084 12.0625 12.4915 12.0625 12.4915 11.9795C12.4915 11.8965 12.4915 11.8135 12.4915 11.6474C12.4915 11.3153 12.4915 11.0663 12.5745 10.8172C12.6575 10.5681 12.6575 10.4021 12.7406 10.236C12.8236 10.07 12.9066 9.98696 12.9896 9.90394C13.0726 9.82092 13.1557 9.7379 13.1557 9.7379H13.2387C13.4047 9.65487 13.6538 9.73789 13.8198 9.90394C14.0689 10.07 14.318 10.3191 14.484 10.5681C14.6501 10.8172 14.8992 11.0663 15.2312 11.3984C15.5633 11.7304 15.8124 11.9795 15.9785 12.0625L16.2275 12.2286C16.3936 12.3116 16.5596 12.3946 16.8087 12.4777C17.0577 12.5607 17.2238 12.5607 17.3898 12.5607L20.2126 12.4777C20.4617 12.4777 20.7108 12.3946 20.8768 12.3116C21.0428 12.2286 21.1259 12.1456 21.1259 11.9795C21.1259 11.8965 21.1259 11.7304 21.1259 11.6474C20.9598 11.4814 20.9598 11.3983 20.9598 11.3153Z" fill="white"/>
</svg>

<svg width="22" height="13" fill="none" xmlns="http://www.w3.org/2000/svg"><path d="M20.96 11.315c0-.083-.083-.083-.083-.166-.332-.664-1.08-1.494-2.076-2.407-.498-.415-.747-.748-.913-.914-.25-.332-.25-.58-.166-.913.083-.249.415-.664.996-1.411.332-.415.498-.664.747-.914 1.246-1.66 1.827-2.74 1.66-3.237l-.082-.083c-.083-.083-.166-.166-.332-.166-.166-.084-.415-.084-.664 0H16.31l-.084.083c-.082.083-.082.083-.082.166-.333.913-.748 1.66-1.163 2.49-.249.415-.498.83-.747 1.163-.25.332-.415.58-.581.747-.166.166-.332.249-.415.415-.083.083-.25.166-.25.083-.082 0-.165 0-.165-.083l-.25-.25c-.082-.082-.082-.248-.166-.414V1.353c0-.083-.083-.25-.083-.333l-.249-.249c-.083-.083-.249-.083-.332-.166A7.447 7.447 0 0 0 10.25.44c-1.328 0-2.242.083-2.574.25-.166.082-.332.165-.415.331-.166.167-.166.25-.083.25.415.083.747.249.913.498l.083.166c.083.083.083.249.166.498s.083.498.083.83V4.59c0 .416-.083.665-.083.914s-.083.415-.166.498c-.083.166-.083.249-.166.249 0 0 0 .083-.083.083s-.166.083-.332.083c-.083 0-.249-.083-.332-.166a1 1 0 0 1-.415-.415c-.166-.166-.332-.415-.498-.747-.166-.332-.415-.665-.581-1.163L5.6 3.594c-.083-.166-.25-.498-.416-.913-.166-.415-.332-.747-.498-1.162a1.147 1.147 0 0 0-.249-.332h-.083s-.083-.083-.166-.083-.166-.084-.249-.084H.951c-.332 0-.498.084-.58.167l-.084.083v.166c0 .083 0 .166.083.332.415.996.913 1.992 1.412 2.989.498.913.996 1.743 1.328 2.324.415.581.747 1.162 1.162 1.66.415.499.664.83.747.997l.332.332.25.25c.166.165.415.414.747.663.332.25.747.498 1.162.747.415.25.913.416 1.412.582.58.166 1.079.249 1.577.166h1.245a.754.754 0 0 0 .581-.25l.083-.082c0-.084.084-.084.084-.167v-.332c0-.332 0-.58.082-.83.084-.249.084-.415.167-.581.083-.166.166-.249.249-.332l.166-.166h.083c.166-.083.415 0 .58.166.25.166.499.415.665.664.166.25.415.498.747.83.332.332.581.582.748.665l.248.166c.167.083.333.166.582.249.249.083.415.083.58.083l2.824-.083c.249 0 .498-.083.664-.166.166-.083.249-.166.249-.332v-.333c-.166-.166-.166-.249-.166-.332Z" fill="#fff"/></svg>
